; generated by PrusaSlicer 2.5.0+MacOS-x64 on 2023-03-06 at 02:34:07 UTC


;
;
; 

; external perimeters extrusion width = 0.45mm
; perimeters extrusion width = 0.45mm
; infill extrusion width = 0.45mm
; solid infill extrusion width = 0.45mm
; top infill extrusion width = 0.40mm
; first layer extrusion width = 0.42mm

M73 P0 R94
M73 Q0 S94
M201 X1000 Y1000 Z200 E5000 ; sets maximum accelerations, mm/sec^2
M203 X200 Y200 Z12 E120 ; sets maximum feedrates, mm / sec
M204 P1250 R1250 T1250 ; sets acceleration (P, T) and retract acceleration (R), mm/sec^2
M205 X8.00 Y8.00 Z0.40 E4.50 ; sets the jerk limits, mm/sec
M205 S0 T0 ; sets the minimum extruding and travel feed rate, mm/sec
M107
;TYPE:Custom
M862.3 P "MK3S" ; printer model check
M862.1 P0.4 ; nozzle diameter check
M115 U3.11.0 ; tell printer latest fw version
G90 ; use absolute coordinates
M83 ; extruder relative mode
M104 S215 ; set extruder temp
M140 S60 ; set bed temp
M190 S60 ; wait for bed temp
M109 S215 ; wait for extruder temp
G28 W ; home all without mesh bed level
G80 ; mesh bed leveling

G1 Z0.2 F720
G1 Y-3 F1000 ; go outside print area
G92 E0
G1 X60 E9 F1000 ; intro line
G1 X100 E12.5 F1000 ; intro line

G92 E0
M221 S95

; Don't change E values below. Excessive value can damage the printer.
M907 E430 ; set extruder motor current
G21 ; set units to millimeters
G90 ; use absolute coordinates
M83 ; use relative distances for extrusion
M900 K0.05 ; Filament gcode LA 1.5
M900 K30 ; Filament gcode LA 1.0
M107
;LAYER_CHANGE
;Z:0.2
;HEIGHT:0.2
;BEFORE_LAYER_CHANGE
G92 E0.0
;0.2


G1 E-.8 F2100
G1 Z.4 F720
;AFTER_LAYER_CHANGE
;0.2
G1 X27.251 Y63.585 F10800
G1 Z.2 F720
G1 E.8 F2100
M204 S800
;TYPE:Skirt/Brim
;WIDTH:0.42
G1 F1200
G1 X28.264 Y63.212 E.03386
G1 X29.407 Y62.906 E.0371
G1 X30.905 Y62.675 E.04752
G1 X32.035 Y62.623 E.03548
G1 X218.017 Y62.623 E5.83133
G1 X220.165 Y62.821 E.06765
G1 X222.247 Y63.388 E.06764
G1 X223.243 Y63.805 E.03385
G1 X224.413 Y64.438 E.04171
G1 X225.458 Y65.149 E.03966
G1 X226.288 Y65.84 E.03385
G1 X227.125 Y66.677 E.0371
G1 X227.815 Y67.507 E.03385
G1 X228.967 Y69.331 E.06764
G1 X229.784 Y71.328 E.06764
G1 X230.242 Y73.436 E.06764
G1 X230.342 Y75 E.04914
G1 X230.342 Y145 E2.1948
G1 X229.95 Y146.307 E.04278
G1 X228.905 Y147.183 E.04278
G1 X227.965 Y147.377 E.03008
G1 X22.035 Y147.377 E6.45679
G1 X20.728 Y146.985 E.04278
G1 X19.852 Y145.94 E.04278
G1 X19.658 Y145 E.03008
G1 X19.658 Y75 E2.1948
G1 X19.71 Y73.87 E.03548
G1 X19.963 Y72.271 E.05076
G1 X20.423 Y70.718 E.05076
G1 X21.081 Y69.239 E.05076
G1 X21.927 Y67.859 E.05076
G1 X22.945 Y66.6 E.05076
G1 X24.425 Y65.24 E.06304
G1 X25.802 Y64.308 E.05213
G1 X27.197 Y63.612 E.04888
M204 S1000
; printing object Part Studio 1 - hex tool holder.stl id:0 copy 0
;WIPE_START
G1 F8640
G1 X28.264 Y63.212 E-.26311
G1 X29.407 Y62.906 E-.2732
G1 X30.364 Y62.758 E-.22369
;WIPE_END
G1 E-.04 F2100
G1 Z.6 F720
G1 X227.178 Y144.213 F10800
G1 Z.2 F720
G1 E.8 F2100
M204 S800
;TYPE:Perimeter
;WIDTH:0.419999
G1 F1200
G1 X22.822 Y144.213 E6.40742
G1 X22.822 Y75.015 E2.16965
M73 P0 R93
G1 X22.857 Y74.203 E.02548
G1 X23.043 Y73 E.03816
G1 X23.248 Y72.236 E.02482
G1 X23.687 Y71.106 E.03799
G1 X24.246 Y70.083 E.03657
G1 X24.983 Y69.073 E.03918
G1 X25.517 Y68.49 E.02479
G1 X26.432 Y67.688 E.03816
G1 X27.081 Y67.234 E.02483
G1 X28.108 Y66.668 E.03677
G1 X29.266 Y66.214 E.03899
G1 X30.441 Y65.927 E.03794
G1 X31.232 Y65.823 E.02501
G1 X32.05 Y65.787 E.02567
G1 X218.328 Y65.796 E5.84062
G1 X219.168 Y65.867 E.02643
M73 P1 R93
M73 Q1 S93
G1 X219.959 Y66.006 E.02517
G1 X220.735 Y66.214 E.0252
G1 X221.49 Y66.489 E.0252
G1 X222.219 Y66.829 E.0252
G1 X222.915 Y67.23 E.0252
G1 X223.573 Y67.691 E.0252
G1 X224.189 Y68.208 E.0252
G1 X224.757 Y68.776 E.0252
G1 X225.274 Y69.392 E.0252
G1 X225.735 Y70.05 E.0252
G1 X226.136 Y70.746 E.0252
G1 X226.476 Y71.475 E.0252
G1 X226.751 Y72.23 E.0252
G1 X226.959 Y73.006 E.0252
G1 X227.099 Y73.798 E.0252
G1 X227.143 Y74.303 E.01589
G1 X227.178 Y75.009 E.02216
G1 X227.178 Y144.153 E2.16797
M204 S1000
G1 X227.555 Y144.59 F10800
M204 S800
;TYPE:External perimeter
G1 F1200
G1 X22.445 Y144.59 E6.43107
G1 X22.445 Y75.007 E2.18173
G1 X22.482 Y74.166 E.02639
G1 X22.673 Y72.922 E.03945
G1 X22.889 Y72.118 E.02611
G1 X23.344 Y70.947 E.0394
G1 X23.927 Y69.881 E.03811
G1 X24.69 Y68.834 E.04061
G1 X25.253 Y68.22 E.0261
G1 X26.199 Y67.391 E.03945
G1 X26.881 Y66.913 E.02611
G1 X27.948 Y66.326 E.03817
G1 X29.152 Y65.854 E.04055
G1 X30.372 Y65.556 E.03938
G1 X31.199 Y65.447 E.02617
G1 X32.042 Y65.41 E.02644
G1 X218.344 Y65.419 E5.84138
G1 X219.217 Y65.492 E.02746
G1 X220.041 Y65.638 E.02622
G1 X220.849 Y65.854 E.02623
G1 X221.635 Y66.14 E.02623
G1 X222.393 Y66.494 E.02623
G1 X223.118 Y66.912 E.02623
G1 X223.803 Y67.392 E.02623
G1 X224.444 Y67.93 E.02623
G1 X225.035 Y68.521 E.02623
G1 X225.573 Y69.162 E.02623
G1 X226.053 Y69.847 E.02623
G1 X226.471 Y70.572 E.02623
G1 X226.825 Y71.33 E.02623
G1 X227.111 Y72.116 E.02623
G1 X227.327 Y72.924 E.02623
G1 X227.473 Y73.748 E.02623
G1 X227.518 Y74.27 E.01641
G1 X227.555 Y75.004 E.02307
G1 X227.555 Y144.53 E2.17992
M204 S1000
G1 X227.209 Y144.39 F10800
;WIPE_START
G1 F8640
G1 X224.264 Y144.531 E-.76
;WIPE_END
G1 E-.04 F2100
G1 Z.6 F720
G1 X24.785 Y93.072 F10800
G1 Z.2 F720
G1 E.8 F2100
M204 S800
;TYPE:Perimeter
G1 F1200
G1 X25.064 Y92.56 E.01829
G1 X25.344 Y92.24 E.01335
G1 X25.687 Y91.967 E.01373
G1 X26.147 Y91.727 E.01626
G1 X26.566 Y91.606 E.01369
G1 X27.07 Y91.56 E.01587
G1 X27.519 Y91.609 E.01416
G1 X28.014 Y91.764 E.01626
G1 X28.398 Y91.976 E.01373
G1 X28.795 Y92.309 E.01626
G1 X29.068 Y92.652 E.01374
G1 X29.31 Y93.118 E.01648
G1 X29.444 Y93.611 E.01601
G1 X29.475 Y94.05 E.01379
G1 X29.411 Y94.535 E.01534
G1 X29.265 Y94.99 E.01501
G1 X29.011 Y95.434 E.01602
G1 X28.726 Y95.76 E.0136
G1 X28.383 Y96.033 E.01373
G1 X27.923 Y96.273 E.01626
G1 X27.503 Y96.394 E.01374
G1 X26.973 Y96.439 E.01665
G1 X26.459 Y96.372 E.01627
G1 X26.045 Y96.23 E.01374
G1 X25.595 Y95.971 E.01626
G1 X25.275 Y95.691 E.01335
G1 X25.002 Y95.348 E.01373
G1 X24.759 Y94.878 E.0166
G1 X24.626 Y94.389 E.01588
G1 X24.595 Y94.051 E.01063
G1 X24.644 Y93.516 E.01687
G1 X24.767 Y93.13 E.0127
M204 S1000
G1 X25.147 Y93.171 F10800
M204 S800
;TYPE:External perimeter
G1 F1200
G1 X25.353 Y92.803 E.01323
G1 X25.587 Y92.529 E.01129
G1 X25.868 Y92.297 E.01142
G1 X26.26 Y92.087 E.01395
G1 X26.608 Y91.98 E.01141
G1 X27.039 Y91.936 E.01358
G1 X27.414 Y91.971 E.01181
G1 X27.84 Y92.099 E.01395
G1 X28.161 Y92.27 E.01142
G1 X28.55 Y92.604 E.01608
G1 X28.827 Y92.996 E.01504
G1 X28.95 Y93.229 E.00824
G1 X29.069 Y93.648 E.01368
G1 X29.099 Y94.017 E.01159
G1 X29.049 Y94.429 E.01302
G1 X28.934 Y94.809 E.01244
G1 X28.717 Y95.197 E.01396
G1 X28.483 Y95.471 E.01129
G1 X28.202 Y95.703 E.01142
G1 X27.81 Y95.913 E.01395
G1 X27.461 Y96.02 E.01143
G1 X27.014 Y96.064 E.01408
G1 X26.572 Y96.012 E.01396
G1 X26.226 Y95.899 E.01143
G1 X25.838 Y95.682 E.01395
G1 X25.564 Y95.448 E.01129
G1 X25.332 Y95.167 E.01142
G1 X25.12 Y94.771 E.01407
G1 X25.001 Y94.355 E.01359
G1 X24.971 Y94.017 E.01063
G1 X25.006 Y93.621 E.01247
G1 X25.125 Y93.226 E.01293
M204 S1000
G1 X24.909 Y92.85 F10800
;WIPE_START
G1 F8640
G1 X25.353 Y92.803 E-.11111
G1 X25.587 Y92.529 E-.08315
G1 X25.868 Y92.297 E-.08408
G1 X26.26 Y92.087 E-.10273
G1 X26.608 Y91.98 E-.08402
G1 X27.039 Y91.936 E-.1
G1 X27.414 Y91.971 E-.08697
G1 X27.84 Y92.099 E-.10275
G1 X27.86 Y92.109 E-.00518
;WIPE_END
G1 E-.04 F2100
G1 Z.6 F720
G1 X56.076 Y94.994 F10800
G1 Z.2 F720
G1 E.8 F2100
M204 S800
;TYPE:Perimeter
G1 F1200
G1 X55.821 Y95.495 E.01762
G1 X55.508 Y95.886 E.01571
G1 X55.12 Y96.225 E.01615
G1 X54.636 Y96.498 E.01742
G1 X54.07 Y96.677 E.01863
G1 X53.565 Y96.731 E.01593
G1 X53.061 Y96.691 E.01585
G1 X52.548 Y96.545 E.01673
G1 X52.02 Y96.271 E.01863
G1 X51.624 Y95.952 E.01596
G1 X51.267 Y95.518 E.0176
G1 X51.02 Y95.067 E.01614
G1 X50.858 Y94.535 E.01743
G1 X50.805 Y94.049 E.01531
G1 X50.841 Y93.546 E.01582
G1 X50.99 Y93.013 E.01736
G1 X51.224 Y92.543 E.01645
G1 X51.562 Y92.114 E.01712
G1 X51.95 Y91.775 E.01617
G1 X52.434 Y91.503 E.0174
G1 X52.931 Y91.335 E.01646
G1 X53.459 Y91.272 E.01667
G1 X53.959 Y91.303 E.0157
G1 X54.522 Y91.455 E.01831
G1 X55.038 Y91.721 E.01818
G1 X55.429 Y92.034 E.0157
G1 X55.803 Y92.482 E.0183
G1 X56.051 Y92.935 E.01619
G1 X56.212 Y93.465 E.01738
G1 X56.267 Y94 E.01686
G1 X56.212 Y94.535 E.01686
G1 X56.093 Y94.936 E.01313
M204 S1000
G1 X55.699 Y94.918 F10800
M204 S800
;TYPE:External perimeter
G1 F1200
G1 X55.509 Y95.282 E.01287
G1 X55.192 Y95.673 E.0158
G1 X54.868 Y95.94 E.01315
G1 X54.423 Y96.181 E.01586
G1 X53.94 Y96.32 E.01576
G1 X53.519 Y96.354 E.01326
G1 X53.106 Y96.315 E.013
G1 X52.622 Y96.17 E.01584
G1 X52.183 Y95.929 E.01569
G1 X51.856 Y95.65 E.01349
G1 X51.542 Y95.254 E.01585
G1 X51.32 Y94.771 E.01666
G1 X51.209 Y94.342 E.01389
G1 X51.181 Y94.016 E.01025
G1 X51.22 Y93.571 E.01403
G1 X51.366 Y93.084 E.01593
G1 X51.561 Y92.718 E.01301
G1 X51.882 Y92.324 E.01593
G1 X52.202 Y92.06 E.01301
G1 X52.649 Y91.819 E.01593
G1 X53.045 Y91.697 E.013
G1 X53.538 Y91.646 E.01552
G1 X53.964 Y91.685 E.01343
G1 X54.445 Y91.828 E.01574
G1 X54.887 Y92.073 E.01584
G1 X55.257 Y92.403 E.01552
G1 X55.529 Y92.749 E.01381
M73 P1 R92
G1 X55.75 Y93.228 E.01655
G1 X55.871 Y93.771 E.01745
G1 X55.868 Y94.257 E.01523
G1 X55.722 Y94.864 E.01956
M204 S1000
G1 X55.949 Y95.23 F10800
;WIPE_START
G1 F8640
G1 X55.509 Y95.282 E-.10849
G1 X55.192 Y95.673 E-.11633
G1 X54.868 Y95.94 E-.09681
G1 X54.423 Y96.181 E-.11683
G1 X53.94 Y96.32 E-.11604
G1 X53.519 Y96.354 E-.09769
G1 X53.106 Y96.315 E-.09576
G1 X53.056 Y96.3 E-.01206
;WIPE_END
G1 E-.04 F2100
G1 Z.6 F720
G1 X82.793 Y95.195 F10800
G1 Z.2 F720
G1 E.8 F2100
M204 S800
;TYPE:Perimeter
G1 F1200
G1 X82.539 Y95.678 E.01712
G1 X82.202 Y96.097 E.01686
G1 X81.805 Y96.441 E.01647
G1 X81.245 Y96.761 E.02021
G1 X80.634 Y96.954 E.0201
G1 X80.087 Y97.015 E.01726
G1 X79.443 Y96.956 E.02028
G1 X78.927 Y96.805 E.01684
G1 X78.357 Y96.504 E.02022
G1 X77.938 Y96.167 E.01686
G1 X77.594 Y95.77 E.01647
G1 X77.329 Y95.326 E.01621
G1 X77.11 Y94.725 E.02006
G1 X77.021 Y94.062 E.02097
G1 X77.076 Y93.423 E.02011
G1 X77.23 Y92.894 E.01727
G1 X77.463 Y92.43 E.01627
G1 X77.854 Y91.92 E.02016
G1 X78.265 Y91.559 E.01715
G1 X78.825 Y91.239 E.02022
G1 X79.334 Y91.067 E.01684
G1 X79.958 Y90.987 E.01974
G1 X80.742 Y91.071 E.02471
G1 X81.477 Y91.354 E.0247
G1 X82.113 Y91.818 E.02466
G1 X82.456 Y92.203 E.01619
G1 X82.79 Y92.779 E.02087
G1 X82.968 Y93.299 E.01724
G1 X83.049 Y93.938 E.02021
G1 X82.991 Y94.592 E.02059
G1 X82.821 Y95.142 E.01804
M204 S1000
G1 X82.477 Y94.992 F10800
M204 S800
;TYPE:External perimeter
G1 F1200
G1 X82.208 Y95.497 E.01793
G1 X81.89 Y95.878 E.01557
G1 X81.532 Y96.173 E.01455
G1 X81.061 Y96.432 E.01683
G1 X80.528 Y96.592 E.01748
G1 X80.028 Y96.64 E.01575
G1 X79.484 Y96.581 E.01715
G1 X79.007 Y96.43 E.01568
G1 X78.538 Y96.173 E.01676
G1 X78.157 Y95.855 E.01557
G1 X77.866 Y95.504 E.01429
G1 X77.683 Y95.197 E.01121
G1 X77.465 Y94.596 E.02006
G1 X77.396 Y94.021 E.01815
G1 X77.451 Y93.463 E.01758
G1 X77.601 Y92.979 E.01589
G1 X77.762 Y92.66 E.01121
G1 X78.152 Y92.151 E.0201
G1 X78.538 Y91.827 E.01579
G1 X79.006 Y91.57 E.01676
G1 X79.483 Y91.419 E.01567
G1 X80 Y91.361 E.01632
G1 X80.694 Y91.445 E.02191
G1 X81.333 Y91.703 E.0216
G1 X81.883 Y92.117 E.0216
G1 X82.143 Y92.413 E.01236
G1 X82.463 Y92.968 E.02007
G1 X82.616 Y93.447 E.01578
G1 X82.674 Y93.98 E.0168
G1 X82.616 Y94.551 E.01801
G1 X82.495 Y94.935 E.01261
M204 S1000
G1 X82.721 Y95.309 F10800
;WIPE_START
G1 F8640
G1 X82.208 Y95.497 E-.14565
G1 X81.89 Y95.878 E-.11468
G1 X81.532 Y96.173 E-.10712
G1 X81.061 Y96.432 E-.12395
G1 X80.528 Y96.592 E-.12874
G1 X80.028 Y96.64 E-.11598
G1 X79.925 Y96.629 E-.02388
;WIPE_END
G1 E-.04 F2100
G1 Z.6 F720
G1 X106.517 Y90.411 F10800
G1 Z.2 F720
G1 E.8 F2100
M204 S800
;TYPE:Perimeter
G1 F1200
G1 X107.108 Y90.451 E.01858
G1 X107.854 Y90.656 E.02424
G1 X108.425 Y90.941 E.02002
G1 X109.033 Y91.415 E.02416
G1 X109.533 Y92.017 E.02455
G1 X109.837 Y92.578 E.02001
G1 X110.064 Y93.315 E.02418
G1 X110.13 Y93.95 E.02001
G1 X110.057 Y94.718 E.02418
G1 X109.875 Y95.33 E.02003
G1 X109.594 Y95.89 E.01964
G1 X109.217 Y96.376 E.01928
G1 X109.033 Y96.585 E.00874
G1 X108.518 Y96.998 E.02071
G1 X108.019 Y97.27 E.01779
G1 X107.22 Y97.529 E.02636
G1 X106.584 Y97.595 E.02003
G1 X105.96 Y97.549 E.01964
G1 X105.216 Y97.344 E.02418
G1 X104.645 Y97.059 E.02
G1 X104.037 Y96.585 E.02418
G1 X103.619 Y96.103 E.02001
G1 X103.238 Y95.432 E.02418
G1 X103.036 Y94.826 E.02002
G1 X102.941 Y94.062 E.02417
G1 X103.001 Y93.385 E.0213
G1 X103.136 Y92.858 E.01706
G1 X103.363 Y92.329 E.01806
G1 X103.537 Y92.017 E.01119
G1 X103.953 Y91.499 E.02084
G1 X104.553 Y91.002 E.02442
G1 X105.114 Y90.697 E.02002
G1 X105.708 Y90.501 E.01964
G1 X106.457 Y90.407 E.02367
M204 S1000
G1 X106.487 Y90.783 F10800
M204 S800
;TYPE:External perimeter
G1 F1200
G1 X107.077 Y90.827 E.01853
G1 X107.748 Y91.018 E.02189
G1 X108.251 Y91.276 E.01771
G1 X108.797 Y91.709 E.02186
G1 X109.239 Y92.253 E.02199
G1 X109.503 Y92.752 E.0177
G1 X109.702 Y93.421 E.02187
G1 X109.754 Y93.983 E.0177
G1 X109.682 Y94.677 E.02187
G1 X109.516 Y95.217 E.01772
G1 X109.259 Y95.716 E.01758
G1 X108.797 Y96.29 E.02314
G1 X108.282 Y96.704 E.02071
G1 X107.783 Y96.968 E.0177
G1 X107.114 Y97.167 E.02187
G1 X106.551 Y97.219 E.01772
G1 X105.992 Y97.173 E.01759
G1 X105.322 Y96.982 E.02187
G1 X104.819 Y96.724 E.01769
G1 X104.273 Y96.291 E.02187
G1 X103.908 Y95.86 E.0177
G1 X103.569 Y95.251 E.02187
G1 X103.396 Y94.713 E.01771
G1 X103.316 Y94.021 E.02186
G1 X103.375 Y93.425 E.01876
G1 X103.554 Y92.784 E.02088
G1 X103.811 Y92.284 E.01761
G1 X104.245 Y91.738 E.02186
G1 X104.789 Y91.296 E.02198
G1 X105.288 Y91.032 E.01771
G1 X105.822 Y90.861 E.01758
G1 X106.428 Y90.79 E.01913
M204 S1000
G1 X106.681 Y90.433 F10800
;WIPE_START
G1 F8640
G1 X107.077 Y90.827 E-.15008
G1 X107.748 Y91.018 E-.16122
G1 X108.251 Y91.276 E-.1304
G1 X108.797 Y91.709 E-.16095
G1 X109.227 Y92.238 E-.15735
;WIPE_END
G1 E-.04 F2100
G1 Z.6 F720
G1 X129.115 Y92.37 F10800
G1 Z.2 F720
G1 E.8 F2100
M204 S800
;TYPE:Perimeter
G1 F1200
G1 X129.424 Y91.758 E.02149
G1 X129.987 Y91.039 E.02862
G1 X130.7 Y90.45 E.029
G1 X131.363 Y90.092 E.02362
G1 X132.067 Y89.861 E.02323
G1 X132.952 Y89.752 E.02797
G1 X133.723 Y89.806 E.02422
G1 X134.604 Y90.051 E.02868
G1 X135.277 Y90.389 E.02361
G1 X135.996 Y90.952 E.02862
G1 X136.634 Y91.74 E.0318
G1 X136.942 Y92.327 E.02077
G1 X137.229 Y93.311 E.03214
G1 X137.285 Y93.951 E.02015
G1 X137.229 Y94.69 E.02324
G1 X136.984 Y95.569 E.02862
G1 X136.646 Y96.242 E.02362
G1 X136.083 Y96.961 E.02862
G1 X135.513 Y97.453 E.02362
G1 X134.73 Y97.895 E.02817
G1 X133.834 Y98.174 E.02944
G1 X133.084 Y98.25 E.02362
G1 X132.346 Y98.194 E.02323
G1 X131.466 Y97.949 E.02862
G1 X130.569 Y97.463 E.03198
G1 X130.065 Y97.04 E.02065
G1 X129.436 Y96.26 E.03141
G1 X129.128 Y95.674 E.02076
G1 X128.896 Y94.968 E.02329
G1 X128.786 Y94.062 E.02862
G1 X128.87 Y93.161 E.02836
G1 X129.088 Y92.423 E.02413
M204 S1000
G1 X129.463 Y92.505 F10800
M204 S800
;TYPE:External perimeter
G1 F1200
G1 X129.759 Y91.932 E.02022
G1 X130.281 Y91.275 E.02631
G1 X130.936 Y90.744 E.02644
G1 X131.537 Y90.427 E.02131
G1 X132.18 Y90.221 E.02117
G1 X132.994 Y90.127 E.02569
G1 X133.691 Y90.182 E.02192
G1 X134.499 Y90.413 E.02633
G1 X135.103 Y90.724 E.0213
G1 X135.76 Y91.246 E.02631
G1 X136.28 Y91.884 E.02582
G1 X136.608 Y92.502 E.02192
G1 X136.811 Y93.186 E.02239
G1 X136.909 Y93.983 E.02517
G1 X136.853 Y94.657 E.0212
G1 X136.622 Y95.464 E.02631
G1 X136.311 Y96.068 E.02131
G1 X135.789 Y96.725 E.02631
G1 X135.271 Y97.164 E.02131
G1 X134.549 Y97.564 E.02586
G1 X133.728 Y97.811 E.02688
G1 X133.051 Y97.874 E.02131
G1 X132.378 Y97.818 E.02118
G1 X131.572 Y97.587 E.02631
G1 X130.892 Y97.219 E.02423
G1 X130.307 Y96.751 E.02349
G1 X129.888 Y96.237 E.0208
G1 X129.559 Y95.683 E.02021
G1 X129.37 Y95.217 E.01575
G1 X129.233 Y94.676 E.01751
G1 X129.161 Y94.021 E.02066
G1 X129.245 Y93.201 E.02582
G1 X129.441 Y92.561 E.02101
M204 S1000
G1 X129.217 Y92.19 F10800
;WIPE_START
G1 F8640
G1 X129.759 Y91.932 E-.16266
G1 X130.281 Y91.275 E-.19379
